src/assets/human.svg

<svg width="221" height="316" viewBox="0 0 221 316" fill="none" xmlns="http://www.w3.org/2000/svg">
<path fill-rule="evenodd" clip-rule="evenodd" d="M146.474 47.6722C150.76 42.6419 153.66 36.4772 153.175 29.5694C151.779 9.66629 124.073 14.0447 118.684 24.0901C113.294 34.1355 113.935 59.6165 120.9 61.4119C123.678 62.1279 129.595 60.374 135.618 56.7439L131.837 83.4876H154.158L146.474 47.6722Z" fill="#B28B67"/>
<path fill-rule="evenodd" clip-rule="evenodd" d="M162.907 22.9441C163.628 22.2297 164.021 21.2099 164.361 20.2417C164.714 19.2358 165.058 18.2196 165.292 17.1726C165.761 15.0808 165.765 12.6751 164.273 11.0508C163.076 9.74824 161.28 9.16401 159.623 9.03704C158.519 8.95236 157.385 9.107 156.326 9.45497C155.276 9.80015 154.371 10.4881 153.353 10.9151C153.314 8.66085 152.928 6.3021 151.784 4.37729C150.684 2.52531 148.929 1.48605 146.931 1.2111C144.88 0.928937 142.855 1.40887 141.019 2.40177C140.559 2.65043 140.104 2.91094 139.668 3.20579C139.303 3.45269 138.923 3.75003 138.495 3.85044C138.018 3.96251 137.781 3.68683 137.471 3.33858C137.107 2.93028 136.698 2.57066 136.264 2.25185C134.346 0.842408 131.831 0.262901 129.609 1.10773C128.586 1.49697 127.59 2.15801 126.896 3.06891C126.277 3.88089 125.835 5.16891 124.981 5.73463C124.619 5.97478 124.363 5.65661 124.032 5.42146C123.537 5.06813 123.064 4.67824 122.562 4.33454C121.857 3.85165 121.094 3.49045 120.277 3.30138C119.08 3.02458 117.427 3.08946 117.085 4.6564C116.957 5.24498 117.055 5.87446 117.097 6.46748C117.153 7.28177 117.213 8.09578 117.284 8.90887C117.337 9.52623 117.405 10.1225 117.522 10.7287C117.584 11.0519 117.778 11.6544 117.64 11.978C117.467 12.3825 116.667 12.1525 116.326 12.1666C115.651 12.1944 114.974 12.3127 114.35 12.6009C113.867 12.8243 113.359 13.1528 113.155 13.7068C113.03 14.0471 113.063 14.3966 113.122 14.7467C113.193 15.1668 113.112 15.3897 113.059 15.8136C112.153 15.3676 109.014 14.3765 108.619 15.9999C108.487 16.5405 108.787 17.1513 109.015 17.6071C109.416 18.4067 109.941 19.1375 110.478 19.8345C111.599 21.2884 112.936 22.5425 114.375 23.615C112.689 24.3645 112.249 26.5752 113.709 27.8924C114.353 28.474 115.22 28.6034 116.033 28.5662C116.33 28.5526 116.759 28.4382 116.993 28.4901C117.119 28.5179 117.254 28.6247 117.429 28.6366C118.576 28.7152 119.871 28.4388 120.993 28.1842C122.991 27.7305 124.883 26.7837 126.428 25.3417C126.825 24.9718 127.152 24.7589 127.686 24.7643C128.153 24.7691 128.612 24.8972 129.079 24.9091C130.314 24.9406 131.429 24.3365 132.576 23.9344C132.646 25.4846 133.088 27.1919 133.722 28.5866C134.239 29.7238 135.319 29.8891 136.38 29.9889C139.773 30.3082 143.179 29.9519 146.576 29.9566C143.287 30.7 139.889 31.0064 136.629 31.8812C135.155 32.2766 136.281 33.2696 136.911 33.9581C137.948 35.0917 138.719 36.4964 139.254 37.9761C140.863 35.8789 143.707 34.4971 146.227 35.1413C149.01 35.8531 150.971 39.6177 149.19 42.3241C148.157 43.8952 146.291 44.5017 144.738 45.1768C145.949 46.4363 146.242 48.2965 146.971 49.8634C147.331 50.6362 147.836 51.5099 148.64 51.7792C148.938 51.8788 149.287 51.8874 149.521 52.1299C149.812 52.4302 149.881 52.766 150.253 53.0241C151.734 54.0543 154.049 53.9749 155.362 52.6305C156.55 51.4146 156.241 49.4907 155.249 48.258C156.828 47.5998 159.705 46.7533 159.077 44.2933C162.499 44.0661 170.806 38.517 166.214 34.4622C168.734 33.0378 171.05 29.5569 169.431 26.4884C168.184 24.1256 165.285 23.0694 162.907 22.9441Z" fill="#191847"/>
<path fill-rule="evenodd" clip-rule="evenodd" d="M194.501 199.742H122.651L113.237 315.066H220.19L194.501 199.742Z" fill="#C5CFD6"/>
<path fill-rule="evenodd" clip-rule="evenodd" d="M194.501 199.742H172.403L159.177 315.066H220.19L194.501 199.742Z" fill="black" fill-opacity="0.1"/>
<path fill-rule="evenodd" clip-rule="evenodd" d="M40.7377 179.984C33.0772 175.384 20.2248 181.294 20.2336 187.873C20.26 207.557 38.2235 300.326 39.1614 306.19C40.0993 312.055 50.1466 313.604 50.7316 306.209C51.6626 294.444 53.3922 253.714 51.6617 234.862C50.9473 227.08 50.178 219.669 49.4207 213.057C58.8468 230.08 73.4247 254.452 93.1545 286.173L103.865 281.28C95.4545 253.568 88.5577 234.005 83.175 222.589C73.9586 203.043 65.3166 186.304 61.6795 180.408C55.9583 171.134 45.9997 174.37 40.7377 179.984Z" fill="#B28B67"/>
<path fill-rule="evenodd" clip-rule="evenodd" d="M103.1 265.89L66.3377 178.804C57.5309 164.637 32.8391 181.687 35.8424 189.904C42.6608 208.558 77.3378 268.949 79.3692 274.507L103.1 265.89Z" fill="#1F28CF"/>
<path fill-rule="evenodd" clip-rule="evenodd" d="M105.141 275.788C107.431 277.673 108.921 279.213 109.61 280.407C110.449 281.859 111.43 284.118 112.555 287.184C110.87 288.157 95.7278 296.9 67.1275 313.412C63.6938 310.191 63.1588 307.691 65.5225 305.911C67.8863 304.131 69.8369 302.63 71.3745 301.408L87.0543 279.805C87.356 279.389 87.9376 279.297 88.3533 279.599C88.3604 279.604 88.3674 279.609 88.3744 279.615L91.6324 282.123C94.6212 281.862 96.8517 281.307 98.3237 280.457C99.5198 279.767 100.893 278.33 102.442 276.147L102.442 276.147C103.037 275.309 104.198 275.112 105.036 275.707C105.072 275.733 105.107 275.76 105.141 275.788Z" fill="#E4E4E4"/>
<path fill-rule="evenodd" clip-rule="evenodd" d="M53.0841 301.489C54.1245 304.266 54.6448 306.345 54.6448 307.724C54.6448 309.401 54.3654 311.848 53.8066 315.066C51.861 315.066 34.3759 315.066 1.35109 315.066C-0.0120468 310.559 0.77483 308.126 3.71172 307.767C6.64861 307.408 9.08834 307.083 11.0309 306.794L35.4117 295.925C35.8808 295.715 36.4307 295.926 36.6398 296.395C36.6434 296.403 36.6469 296.411 36.6502 296.42L38.2174 300.221C40.9362 301.49 43.1455 302.124 44.8453 302.124C46.2264 302.124 48.1336 301.566 50.5671 300.451L50.5671 300.451C51.5009 300.023 52.605 300.433 53.0331 301.366C53.0515 301.407 53.0685 301.447 53.0841 301.489Z" fill="#E4E4E4"/>
<path fill-rule="evenodd" clip-rule="evenodd" d="M17.657 194.564C17.657 219.272 29.391 276.907 29.3985 282.347L54.6448 282.367C50.9495 230.94 49.6392 204.95 50.7138 204.396C52.3258 203.565 116.793 210.832 136.128 210.832C164.009 210.832 175.543 193.25 176.479 160.68H121.248C110.002 161.884 51.3442 173.715 29.5598 177.782C20.2336 179.523 17.657 187.758 17.657 194.564Z" fill="#2B44FF"/>
<path fill-rule="evenodd" clip-rule="evenodd" d="M112.643 102.739L80.3622 85.0592C74.994 78.6845 69.7048 73.7336 64.4947 70.2066C62.9027 69.542 60.1186 69.1397 62.7223 73.7609C65.3259 78.3821 67.8567 83.36 66.5303 84.7837C65.2038 86.2074 61.8962 84.2185 60.3137 86.584C59.2588 88.161 64.9096 90.6522 77.2662 94.0576L100.722 115.534L112.643 102.739ZM62.085 117.657L47.9052 109.867C45.9156 102.296 43.5373 98.4874 40.7702 98.44C38.6445 97.4509 42.3464 107.017 38.3167 106.188C34.2871 105.358 24.4519 98.0433 22.7572 99.5284C20.2501 101.726 22.4856 108.472 25.1196 111.829C30.0425 118.101 34.1184 120.246 44.1927 123.055C49.46 124.524 55.155 127.468 61.2775 131.887L62.085 117.657Z" fill="#997659"/>
<path fill-rule="evenodd" clip-rule="evenodd" d="M128.365 98.801C117.058 98.6815 101.98 96.2934 85.8916 86.0812L79.5734 100.171C90.6706 111.184 106.274 120.233 119.918 119.85C130.67 119.548 136.165 106.542 128.365 98.801Z" fill="#2026A2"/>
<path fill-rule="evenodd" clip-rule="evenodd" d="M113.14 121.397C101.136 124.391 81.0066 120.86 52.7513 110.806C45.7428 125.305 42.5029 135.642 43.0317 141.817C67.2706 154.478 88.0454 160.123 105.161 160.496C104.617 170.652 105.853 180.315 110.006 189.145C118.543 207.298 168.532 190.486 185.34 193.795C195.865 159.612 175.514 145.72 175.497 123.848C175.479 99.8954 156.247 63.0269 153.417 63.0269H127.612C126.188 81.3197 119.021 101.48 113.14 121.397Z" fill="#1F28CF"/>
</svg>

<svg xmlns="http://www.w3.org/2000/svg" width="221" height="316" fill="none" fill-rule="evenodd" xmlns:v="https://vecta.io/nano"><path d="M146.474 47.672c4.286-5.03 7.186-11.195 6.701-18.103-1.396-19.903-29.102-15.525-34.491-5.479s-4.749 35.526 2.216 37.322c2.778.716 8.695-1.038 14.718-4.668l-3.781 26.744h22.321l-7.684-35.815z" fill="#b28b67"/><path d="M162.907 22.944c.721-.714 1.114-1.734 1.454-2.702l.931-3.069c.469-2.092.473-4.497-1.019-6.122-1.197-1.303-2.993-1.887-4.65-2.014-1.104-.085-2.238.07-3.297.418-1.05.345-1.955 1.033-2.973 1.46-.039-2.254-.425-4.613-1.569-6.538-1.1-1.852-2.855-2.891-4.853-3.166-2.051-.282-4.076.198-5.912 1.191l-1.351.804c-.365.247-.745.544-1.173.645-.477.112-.714-.164-1.024-.512a7.78 7.78 0 0 0-1.207-1.087c-1.918-1.409-4.433-1.989-6.655-1.144-1.023.389-2.019 1.05-2.713 1.961-.619.812-1.061 2.1-1.915 2.666-.362.24-.618-.078-.949-.313l-1.47-1.087c-.705-.483-1.468-.844-2.285-1.033-1.197-.277-2.85-.212-3.192 1.355-.128.589-.03 1.218.012 1.811l.187 2.441.238 1.82c.062.323.256.926.118 1.249-.173.405-.973.175-1.314.189-.675.028-1.352.146-1.976.434-.483.223-.991.552-1.195 1.106-.125.34-.092.69-.033 1.04.071.42-.01.643-.063 1.067-.906-.446-4.045-1.437-4.44.186-.132.541.168 1.151.396 1.607.401.8.926 1.53 1.463 2.227 1.121 1.454 2.458 2.708 3.897 3.781-1.686.75-2.126 2.96-.666 4.277.644.582 1.511.711 2.324.674.297-.014.726-.128.96-.076.126.028.261.135.436.146 1.147.079 2.442-.198 3.564-.452 1.998-.454 3.89-1.401 5.435-2.843.397-.37.724-.583 1.258-.577.467.005.926.133 1.393.145 1.235.032 2.35-.573 3.497-.975.07 1.55.512 3.258 1.146 4.652.517 1.137 1.597 1.302 2.658 1.402 3.393.319 6.799-.037 10.196-.032-3.289.743-6.687 1.05-9.947 1.925-1.474.395-.348 1.388.282 2.077 1.037 1.134 1.808 2.538 2.343 4.018 1.609-2.097 4.453-3.479 6.973-2.835 2.783.712 4.744 4.476 2.963 7.183-1.033 1.571-2.899 2.178-4.452 2.853 1.211 1.26 1.504 3.12 2.233 4.687.36.773.865 1.647 1.669 1.916.298.1.647.108.881.351.291.3.36.636.732.894 1.481 1.03 3.796.951 5.109-.394 1.188-1.216.879-3.14-.113-4.372 1.579-.658 4.456-1.505 3.828-3.965 3.422-.227 11.729-5.776 7.137-9.831 2.52-1.424 4.836-4.905 3.217-7.974-1.247-2.363-4.146-3.419-6.524-3.544z" fill="#191847"/><path d="M194.501 199.742h-71.85l-9.414 115.324H220.19l-25.689-115.324z" fill="#c5cfd6"/><path d="M194.501 199.742H172.403L159.177 315.066H220.19L194.501 199.742Z" fill="#000" fill-opacity=".1"/><path d="M40.738 179.984c-7.66-4.6-20.513 1.31-20.504 7.889.026 19.684 17.99 112.453 18.928 118.317s10.985 7.414 11.57.019c.931-11.765 2.661-52.495.93-71.347l-2.241-21.805c9.426 17.023 24.004 41.395 43.734 73.116l10.71-4.893c-8.41-27.712-15.307-47.275-20.69-58.691-9.216-19.546-17.858-36.285-21.495-42.181-5.721-9.274-15.68-6.038-20.942-.424z" fill="#b28b67"/><path d="M103.1 265.89l-36.762-87.086c-8.807-14.167-33.499 2.883-30.495 11.1 6.818 18.654 41.495 79.045 43.527 84.603l23.731-8.617z" fill="#1f28cf"/><path d="M105.141 275.788c2.29 1.885 3.78 3.425 4.469 4.619.839 1.452 1.82 3.711 2.945 6.777l-45.428 26.228c-3.434-3.221-3.969-5.721-1.605-7.501l5.852-4.503 15.68-21.603a.93.93 0 0 1 1.299-.206l.021.016 3.258 2.508c2.989-.261 5.219-.816 6.691-1.666 1.196-.69 2.569-2.127 4.118-4.31h0a1.86 1.86 0 0 1 2.594-.44 2.09 2.09 0 0 1 .105.081zm-52.057 25.701c1.04 2.777 1.561 4.856 1.561 6.235 0 1.677-.279 4.124-.838 7.342H1.351c-1.363-4.507-.576-6.94 2.361-7.299l7.319-.973 24.381-10.869a.93.93 0 0 1 1.228.47.37.37 0 0 1 .01.025l1.567 3.801c2.719 1.269 4.928 1.903 6.628 1.903 1.381 0 3.288-.558 5.722-1.673h0a1.86 1.86 0 0 1 2.466.915 1.99 1.99 0 0 1 .051.123z" fill="#e4e4e4"/><path d="M17.657 194.564c0 24.708 11.734 82.343 11.741 87.783l25.246.02c-3.695-51.427-5.006-77.417-3.931-77.971 1.612-.831 66.079 6.436 85.414 6.436 27.881 0 39.415-17.582 40.351-50.152h-55.231c-11.246 1.204-69.904 13.035-91.688 17.102-9.326 1.741-11.903 9.976-11.903 16.782z" fill="#2b44ff"/><path d="M112.643 102.739l-32.281-17.68c-5.368-6.375-10.657-11.326-15.868-14.853-1.592-.665-4.376-1.067-1.772 3.554s5.134 9.599 3.808 11.023-4.634-.565-6.217 1.8c-1.055 1.577 4.596 4.068 16.953 7.474l23.456 21.476 11.921-12.795zm-50.558 14.918l-14.18-7.79c-1.99-7.571-4.368-11.38-7.135-11.427-2.126-.989 1.576 8.577-2.454 7.748s-13.865-8.145-15.559-6.66c-2.507 2.198-.272 8.944 2.362 12.301 4.923 6.272 8.999 8.417 19.073 11.226 5.267 1.469 10.962 4.413 17.085 8.832l.807-14.23z" fill="#997659"/><path d="M128.365 98.801c-11.307-.12-26.385-2.508-42.473-12.72l-6.318 14.09c11.097 11.013 26.701 20.062 40.345 19.679 10.752-.302 16.247-13.308 8.447-21.049z" fill="#2026a2"/><path d="M113.14 121.397c-12.004 2.994-32.133-.537-60.389-10.591-7.008 14.499-10.248 24.836-9.72 31.011 24.239 12.661 45.014 18.306 62.129 18.679-.544 10.156.692 19.819 4.845 28.649 8.537 18.153 58.526 1.341 75.334 4.65 10.525-34.183-9.826-48.075-9.843-69.947-.018-23.953-19.25-60.821-22.08-60.821h-25.805c-1.424 18.293-8.591 38.453-14.472 58.37z" fill="#1f28cf"/></svg>
